src/images/atlassian.svg

<svg width="117" height="25" fill="none" xmlns="http://www.w3.org/2000/svg"><path fill-rule="evenodd" clip-rule="evenodd" d="M82.2614 16.4009c-1.694-.4245-1.694-.4422-1.694-1.3442 0-.6076.0619-.8977 1.4572-.8977.9581 0 2.368.1592 3.2751.3131.1239.0177.2514-.0088.3534-.0884.102-.0708.1676-.1857.1822-.3096l.2586-2.0207c.0182-.23-.1275-.4422-.3643-.4953-1.0565-.2352-2.5137-.3891-3.7159-.3891-4.2078 0-5.0639 1.5388-5.0639 3.8505 0 2.5408.4827 3.396 3.7014 4.1565 2.1202.4953 2.1202.8623 2.1202 1.4725 0 .8012-.0728 1.0789-1.4572 1.0789-1.1184 0-2.4117-.168-3.5484-.4634-.1275-.0301-.255-.0106-.3643.0531-.1093.0689-.1876.1768-.2113.3007l-.3479 1.9287c-.0419.2211.0911.4378.3097.5068 1.2423.3891 3.0237.6544 4.3316.6544 4.0693 0 4.8999-1.6626 4.8999-4.1388 0-2.7415-.4991-3.2545-4.1276-4.1866l.0055.0177v.0009zm-10.5522 0c-1.694-.4245-1.694-.4422-1.694-1.3442 0-.6076.0619-.8977 1.4572-.8977.9563 0 2.368.1592 3.2752.3131.1238.0177.2513-.0088.3533-.0884.102-.0708.1676-.1857.1822-.3096l.2586-2.0207c.0292-.23-.1238-.4422-.3552-.4953-1.0382-.2352-2.4955-.3891-3.6977-.3891-4.1968 0-5.0639 1.5388-5.0639 3.8505 0 2.5408.4919 3.396 3.7087 4.1565 2.1203.4953 2.1203.8623 2.1203 1.4725 0 .8012-.0729 1.0789-1.4573 1.0789-1.1202 0-2.4135-.168-3.552-.4634-.1275-.0301-.255-.0106-.3643.0531-.1093.0689-.1876.1768-.2113.3007l-.3643 1.919c-.0364.2211.0911.4387.3152.5076 1.2386.3892 3.0201.6545 4.3297.6545 4.0621 0 4.9-1.6626 4.9-4.1388 0-2.7416-.5064-3.2545-4.1349-4.1866l-.0055.0177v.0097zM34.3586 7.10979c-.0601-.18749-.2368-.31483-.4408-.31483h-4.3143c-.2004 0-.3826.12646-.4427.31218L23.7172 23.8561c-.0419.1326-.0182.283.0692.3979.0874.115.2259.1831.3734.1831h2.9691c.2058 0 .3862-.1327.4445-.3184l3.7496-12.328s.1002-.3095.4372-.3095c.3461 0 .4371.3184.4371.3184l1.7396 5.8456h-2.3316c-.2003 0-.3825.1353-.4371.3272l-.674 2.317c-.0364.1327 0 .283.0729.3892.091.1123.2368.1768.3825.1768h3.98l1.0474 3.266c.0583.1857.2368.313.4372.313h2.9691c.1457 0 .2878-.0707.3752-.1857.0911-.1167.1166-.2653.0729-.4015L34.3823 7.07972l-.0182.0283-.0055.00177zm56.7409 4.32811h-2.7323c-.255 0-.4609.2007-.4609.4483v12.1335c0 .2476.2077.4528.4627.4528h2.7323c.255 0 .4618-.2008.4618-.4511V11.8907c0-.2477-.2004-.4449-.4554-.4449l-.0091-.0071.0009-.0008zM52.3554 6.46774h-2.7323c-.255 0-.4609.20075-.4609.44837V24.0197c0 .2476.2077.4528.4627.4528h2.7323c.255 0 .4609-.2008.4609-.4511V6.92054c0-.24763-.2004-.44484-.4554-.44484l-.0073-.00707v-.00089zM113.778 11.177c-1.444 0-3.416.4846-5.082 1.2452l-.201-.6545c-.054-.1945-.237-.3228-.442-.3228h-2.021c-.255 0-.465.2008-.465.4484v12.1335c0 .2476.2.451.455.451h2.733c.255 0 .464-.1999.464-.451v-8.4015c.984-.4864 2.368-.9905 3.191-.9905.615 0 .843.2247.843.8225v8.5606c0 .2512.21.451.465.451h2.732c.255 0 .461-.1998.461-.451v-8.9082c0-2.6044-1.057-3.9265-3.135-3.9265h-.002l.004-.0062zM10.5056 18.3907c-.0729-.0707-.1767-.1459-.3552-.1459-.22774 0-.36071.1521-.41172.2264-1.27507 1.8925-1.93083 3.6789-2.0219 5.4742-.00274.1326.04827.2653.14117.3626.09107.1061.22769.1592.3643.1592h3.02735c.2642 0 .4828-.1946.501-.4422.0728-.8667.3461-1.7334.8561-2.6354.173-.3184.0364-.6102-.0638-.7367-.5009-.6367-1.1138-1.3088-2.0246-2.2339l-.0036-.0177-.0091-.0106zm50.7088 1.2912v1.5626c-.4462.2477-1.2659.5837-2.2587.5837-.847 0-1.1111-.2476-1.1111-1.0789 0-.7959.1639-1.0471 1.1658-1.0471h2.204V19.6819zm38.8166 0v1.5626c-.455.2477-1.2747.5837-2.2583.5837-.847 0-1.1111-.2476-1.1111-1.0789 0-.7959.1639-1.0471 1.1658-1.0471h2.2036V19.6819zm-52.724 2.1976c-.0182-.1273-.0911-.2388-.2004-.3095-.1093-.0708-.2386-.092-.3661-.0619-.4918.1167-.9472.1804-1.3115.1804-.674 0-.9836-.283-.9836-.9197v-6.4294h2.6503c.255 0 .4627-.2034.4627-.451v-2.0075c0-.2476-.2095-.451-.4645-.451h-2.6413V8.34436c0-.13266-.0619-.25381-.1639-.34048-.1002-.08578-.2368-.12381-.3643-.10612l-2.7323.37143c-.2295.02918-.4007.21844-.4007.44218v2.72383h-1.491c-.255 0-.4626.2008-.4626.4484v2.0163c0 .2476.2185.4528.4736.4528h1.4863v6.8361c0 2.3498 1.2696 3.5375 3.7761 3.5375.7104 0 1.9235-.1592 2.7141-.4245.2094-.0708.3388-.2768.3042-.4953l-.296-1.919.0091-.0133.0018.0053zm12.0759-10.6963c-1.3844 0-3.0675.2122-4.2897.5394-.2368.0619-.3826.2786-.3461.5041l.3151 1.9279c.0182.1176.0911.2238.1913.2945.102.0708.2295.0884.3533.0708 1.1348-.2123 2.3079-.3361 3.3007-.3361 1.9672 0 2.2842.4068 2.2842 1.698v1.132h-2.9145c-2.7942 0-3.9892 1.1143-3.9892 3.7497 0 2.5115 1.3115 3.9442 3.5885 3.9442 1.3242 0 2.6467-.3537 3.7578-1.0082l.1184.4122c.0546.1945.2368.3272.4463.3272h2.2186c.255 0 .4609-.2034.4609-.4511v-8.0653c0-3.4667-1.4846-4.7579-5.4829-4.7579l-.0164.0088.0037.0098zm38.8106 0c-1.3844 0-3.0602.2122-4.2806.5394-.2277.0619-.3734.2786-.3325.5041l.3188 1.9279c.0182.1176.0911.2238.1913.2945.1038.0708.2313.0884.3552.0708 1.1293-.2123 2.2951-.3361 3.2969-.3361 1.9673 0 2.2774.4068 2.2774 1.698v1.132h-2.9149c-2.8052 0-4.0001 1.1143-4.0001 3.7497 0 2.5115 1.3088 3.9442 3.5884 3.9442 1.3234 0 2.6413-.3537 3.7526-1.0082l.118.4122c.055.1945.237.3272.446.3272h2.205c.255 0 .464-.2034.464-.4511v-8.0653c0-3.4667-1.485-4.7579-5.4828-4.7579l.0046.0088-.0073.0098zM22.7882 6.5491c-.0911-.06632-.1958-.09993-.3033-.09993-.0729 0-.1275.01061-.1822.03184-1.0929.4015-2.1858.70749-3.1876.93212-.2004.05306-.3789.19456-.4372.37143-.7286 1.94559-2.6048 3.80274-4.5539 5.73064-.0728.0708-.1821.1769-.3643.1769-.1821 0-.2914-.0884-.3643-.1645-1.9672-1.9367-3.82521-3.77622-4.55382-5.72182-.07287-.17687-.2368-.31837-.43717-.37143-1.00185-.22993-2.11299-.53946-3.1877-.93742-.05464-.01769-.12386-.02653-.18215-.02653-.10929 0-.21494.03537-.3042.09993-.13843.09728-.20947.26531-.19308.42449.16394 1.61485.8288 3.19258 2.0128 4.84628 1.12025 1.5565 2.56837 2.998 3.98002 4.39 2.5866 2.5647 5.0366 4.9878 5.2534 7.8001.0182.2511.2368.4475.4954.4475h3.042c.1366 0 .2696-.0531.3643-.1504s.1457-.2264.1366-.359c-.0965-1.8775-.8251-3.7586-2.2277-5.751-.2915-.4157-.6011-.8225-.9318-1.2205-.1329-.1591-.0765-.3625.0256-.4616l.3096-.3042c1.409-1.3885 2.8598-2.83 3.9801-4.3865 1.184-1.6493 1.8397-3.21903 2.0082-4.83299.0182-.16361-.0583-.33606-.1931-.43599l.0091-.01327-.0136-.01415zm-9.0166 1.45036c.9535 0 1.5073-.05925 1.7004-.05925.2186 0 .4554.17687.4554.44218 0 .07075-.0183.12381-.0365.17687-.1275.32544-.7104 1.50694-1.7851 2.52044-.1275.1132-.255.1344-.3461.1344-.091 0-.2368-.0212-.3588-.1344-1.0747-1.0135-1.6503-2.19323-1.776-2.52398-.0182-.05306-.0364-.10612-.0364-.18571 0-.25647.224-.45103.459-.45103.1949 0 .7468.05306 1.7013.05306h.0036l.0183.01769.0009.00973zm77.3261-1.5273h-2.725c-.2551 0-.4627.19456-.4627.44218v2.33472c0 .24762.2076.44926.4627.44926h2.7323c.255 0 .4617-.19456.4617-.44218V6.90285c0-.24762-.2067-.4466-.4617-.4466l-.0073.02122v-.00531zM27.0779.902451c-.1211-.159185-.3097-.247621-.51-.247621-.1029 0-.205.021224-.2915.070749C22.5423 2.70655 18.2189 3.7554 13.767 3.75717c-4.45 0-8.77433-1.05062-12.50484-3.03336C1.17108.670748 1.07089.653061.97071.653061c-.200369 0-.391631.088436-.510031.247621-.176689.212248-.182154.601368.1184.831298C2.44616 3.07621 4.50632 4.13745 6.69945 4.86263c2.27692.74286 4.65225 1.13198 7.06755 1.13198 2.4172 0 4.7943-.38912 7.0676-1.13198 2.1949-.72518 4.2551-1.78642 6.1258-3.13065.3006-.22993.2915-.61905.1184-.848985v.019456h-.0009z" fill="#D6DAE5"/></svg>

<svg width="117" height="25" viewBox="0 0 117 25" fill="none" xmlns="http://www.w3.org/2000/svg">
    <path fill-rule="evenodd" clip-rule="evenodd"
          d="M82.2614 16.4009C80.5674 15.9764 80.5674 15.9587 80.5674 15.0567C80.5674 14.4491 80.6293 14.159 82.0246 14.159C82.9827 14.159 84.3926 14.3182 85.2997 14.4721C85.4236 14.4898 85.5511 14.4633 85.6531 14.3837C85.7551 14.3129 85.8207 14.198 85.8353 14.0741L86.0939 12.0534C86.1121 11.8234 85.9664 11.6112 85.7296 11.5581C84.6731 11.3229 83.2159 11.169 82.0137 11.169C77.8059 11.169 76.9498 12.7078 76.9498 15.0195C76.9498 17.5603 77.4325 18.4155 80.6512 19.176C82.7714 19.6713 82.7714 20.0383 82.7714 20.6485C82.7714 21.4497 82.6986 21.7274 81.3142 21.7274C80.1958 21.7274 78.9025 21.5594 77.7658 21.264C77.6383 21.2339 77.5108 21.2534 77.4015 21.3171C77.2922 21.386 77.2139 21.4939 77.1902 21.6178L76.8423 23.5465C76.8004 23.7676 76.9334 23.9843 77.152 24.0533C78.3943 24.4424 80.1757 24.7077 81.4836 24.7077C85.5529 24.7077 86.3835 23.0451 86.3835 20.5689C86.3835 17.8274 85.8844 17.3144 82.2559 16.3823L82.2614 16.4V16.4009ZM71.7092 16.4009C70.0152 15.9764 70.0152 15.9587 70.0152 15.0567C70.0152 14.4491 70.0771 14.159 71.4724 14.159C72.4287 14.159 73.8404 14.3182 74.7476 14.4721C74.8714 14.4898 74.9989 14.4633 75.1009 14.3837C75.2029 14.3129 75.2685 14.198 75.2831 14.0741L75.5417 12.0534C75.5709 11.8234 75.4179 11.6112 75.1865 11.5581C74.1483 11.3229 72.691 11.169 71.4888 11.169C67.292 11.169 66.4249 12.7078 66.4249 15.0195C66.4249 17.5603 66.9168 18.4155 70.1336 19.176C72.2539 19.6713 72.2539 20.0383 72.2539 20.6485C72.2539 21.4497 72.181 21.7274 70.7966 21.7274C69.6764 21.7274 68.3831 21.5594 67.2446 21.264C67.1171 21.2339 66.9896 21.2534 66.8803 21.3171C66.771 21.386 66.6927 21.4939 66.669 21.6178L66.3047 23.5368C66.2683 23.7579 66.3958 23.9755 66.6199 24.0444C67.8585 24.4336 69.64 24.6989 70.9496 24.6989C75.0117 24.6989 75.8496 23.0363 75.8496 20.5601C75.8496 17.8185 75.3432 17.3056 71.7147 16.3735L71.7092 16.3912V16.4009ZM34.3586 7.10979C34.2985 6.9223 34.1218 6.79496 33.9178 6.79496H29.6035C29.4031 6.79496 29.2209 6.92142 29.1608 7.10714L23.7172 23.8561C23.6753 23.9887 23.699 24.1391 23.7864 24.254C23.8738 24.369 24.0123 24.4371 24.1598 24.4371H27.1289C27.3347 24.4371 27.5151 24.3044 27.5734 24.1187L31.323 11.7907C31.323 11.7907 31.4232 11.4812 31.7602 11.4812C32.1063 11.4812 32.1973 11.7996 32.1973 11.7996L33.9369 17.6452H31.6053C31.405 17.6452 31.2228 17.7805 31.1682 17.9724L30.4942 20.2894C30.4578 20.4221 30.4942 20.5724 30.5671 20.6786C30.6581 20.7909 30.8039 20.8554 30.9496 20.8554H34.9296L35.977 24.1214C36.0353 24.3071 36.2138 24.4344 36.4142 24.4344H39.3833C39.529 24.4344 39.6711 24.3637 39.7585 24.2487C39.8496 24.132 39.8751 23.9834 39.8314 23.8472L34.3823 7.07972L34.3641 7.10802L34.3586 7.10979ZM91.0995 11.4379H88.3672C88.1122 11.4379 87.9063 11.6386 87.9063 11.8862V24.0197C87.9063 24.2673 88.114 24.4725 88.369 24.4725H91.1013C91.3563 24.4725 91.5631 24.2717 91.5631 24.0214V11.8907C91.5631 11.643 91.3627 11.4458 91.1077 11.4458L91.0986 11.4387L91.0995 11.4379ZM52.3554 6.46774H49.6231C49.3681 6.46774 49.1622 6.66849 49.1622 6.91611V24.0197C49.1622 24.2673 49.3699 24.4725 49.6249 24.4725H52.3572C52.6122 24.4725 52.8181 24.2717 52.8181 24.0214V6.92054C52.8181 6.67291 52.6177 6.4757 52.3627 6.4757L52.3554 6.46863V6.46774ZM113.778 11.177C112.334 11.177 110.362 11.6616 108.696 12.4222L108.495 11.7677C108.441 11.5732 108.258 11.4449 108.053 11.4449H106.032C105.777 11.4449 105.567 11.6457 105.567 11.8933V24.0268C105.567 24.2744 105.767 24.4778 106.022 24.4778H108.755C109.01 24.4778 109.219 24.2779 109.219 24.0268V15.6253C110.203 15.1389 111.587 14.6348 112.41 14.6348C113.025 14.6348 113.253 14.8595 113.253 15.4573V24.0179C113.253 24.2691 113.463 24.4689 113.718 24.4689H116.45C116.705 24.4689 116.911 24.2691 116.911 24.0179V15.1097C116.911 12.5053 115.854 11.1832 113.776 11.1832H113.774L113.778 11.177ZM10.5056 18.3907C10.4327 18.32 10.3289 18.2448 10.1504 18.2448C9.92266 18.2448 9.78969 18.3969 9.73868 18.4712C8.46361 20.3637 7.80785 22.1501 7.71678 23.9454C7.71404 24.078 7.76505 24.2107 7.85795 24.308C7.94902 24.4141 8.08564 24.4672 8.22225 24.4672H11.2496C11.5138 24.4672 11.7324 24.2726 11.7506 24.025C11.8234 23.1583 12.0967 22.2916 12.6067 21.3896C12.7797 21.0712 12.6431 20.7794 12.5429 20.6529C12.042 20.0162 11.4291 19.3441 10.5183 18.419L10.5147 18.4013L10.5056 18.3907ZM61.2144 19.6819V21.2445C60.7682 21.4922 59.9485 21.8282 58.9557 21.8282C58.1087 21.8282 57.8446 21.5806 57.8446 20.7493C57.8446 19.9534 58.0085 19.7022 59.0104 19.7022H61.2144V19.6828V19.6819ZM100.031 19.6819V21.2445C99.576 21.4922 98.7563 21.8282 97.7727 21.8282C96.9257 21.8282 96.6616 21.5806 96.6616 20.7493C96.6616 19.9534 96.8255 19.7022 97.8274 19.7022H100.031V19.6828V19.6819ZM47.307 21.8795C47.2888 21.7522 47.2159 21.6407 47.1066 21.57C46.9973 21.4992 46.868 21.478 46.7405 21.5081C46.2487 21.6248 45.7933 21.6885 45.429 21.6885C44.755 21.6885 44.4454 21.4055 44.4454 20.7688V14.3394H47.0957C47.3507 14.3394 47.5584 14.136 47.5584 13.8884V11.8809C47.5584 11.6333 47.3489 11.4299 47.0939 11.4299H44.4526V8.34436C44.4526 8.2117 44.3907 8.09055 44.2887 8.00388C44.1885 7.9181 44.0519 7.88007 43.9244 7.89776L41.1921 8.26919C40.9626 8.29837 40.7914 8.48763 40.7914 8.71137V11.4352H39.3004C39.0454 11.4352 38.8378 11.636 38.8378 11.8836V13.8999C38.8378 14.1475 39.0563 14.3527 39.3114 14.3527H40.7977V21.1888C40.7977 23.5386 42.0673 24.7263 44.5738 24.7263C45.2842 24.7263 46.4973 24.5671 47.2879 24.3018C47.4973 24.231 47.6267 24.025 47.5921 23.8065L47.2961 21.8875L47.3052 21.8742L47.307 21.8795ZM59.3829 11.1832C57.9985 11.1832 56.3154 11.3954 55.0932 11.7226C54.8564 11.7845 54.7106 12.0012 54.7471 12.2267L55.0622 14.1546C55.0804 14.2722 55.1533 14.3784 55.2535 14.4491C55.3555 14.5199 55.483 14.5375 55.6068 14.5199C56.7416 14.3076 57.9147 14.1838 58.9075 14.1838C60.8747 14.1838 61.1917 14.5906 61.1917 15.8818V17.0138H58.2772C55.483 17.0138 54.288 18.1281 54.288 20.7635C54.288 23.275 55.5995 24.7077 57.8765 24.7077C59.2007 24.7077 60.5232 24.354 61.6343 23.6995L61.7527 24.1117C61.8073 24.3062 61.9895 24.4389 62.199 24.4389H64.4176C64.6726 24.4389 64.8785 24.2355 64.8785 23.9878V15.9225C64.8785 12.4558 63.3939 11.1646 59.3956 11.1646L59.3792 11.1734L59.3829 11.1832ZM98.1935 11.1832C96.8091 11.1832 95.1333 11.3954 93.9129 11.7226C93.6852 11.7845 93.5395 12.0012 93.5804 12.2267L93.8992 14.1546C93.9174 14.2722 93.9903 14.3784 94.0905 14.4491C94.1943 14.5199 94.3218 14.5375 94.4457 14.5199C95.575 14.3076 96.7408 14.1838 97.7426 14.1838C99.7099 14.1838 100.02 14.5906 100.02 15.8818V17.0138H97.1051C94.2999 17.0138 93.105 18.1281 93.105 20.7635C93.105 23.275 94.4138 24.7077 96.6934 24.7077C98.0168 24.7077 99.3347 24.354 100.446 23.6995L100.564 24.1117C100.619 24.3062 100.801 24.4389 101.01 24.4389H103.215C103.47 24.4389 103.679 24.2355 103.679 23.9878V15.9225C103.679 12.4558 102.194 11.1646 98.1962 11.1646L98.2008 11.1734L98.1935 11.1832ZM22.7882 6.5491C22.6971 6.48278 22.5924 6.44917 22.4849 6.44917C22.412 6.44917 22.3574 6.45978 22.3027 6.48101C21.2098 6.88251 20.1169 7.1885 19.1151 7.41313C18.9147 7.46619 18.7362 7.60769 18.6779 7.78456C17.9493 9.73015 16.0731 11.5873 14.124 13.5152C14.0512 13.586 13.9419 13.6921 13.7597 13.6921C13.5776 13.6921 13.4683 13.6037 13.3954 13.5276C11.4282 11.5909 9.57019 9.75138 8.84158 7.80578C8.76871 7.62891 8.60478 7.48741 8.40441 7.43435C7.40256 7.20442 6.29142 6.89489 5.21671 6.49693C5.16207 6.47924 5.09285 6.4704 5.03456 6.4704C4.92527 6.4704 4.81962 6.50577 4.73036 6.57033C4.59193 6.66761 4.52089 6.83564 4.53728 6.99482C4.70122 8.60967 5.36608 10.1874 6.55008 11.8411C7.67033 13.3976 9.11845 14.8391 10.5301 16.2311C13.1167 18.7958 15.5667 21.2189 15.7835 24.0312C15.8017 24.2823 16.0203 24.4787 16.2789 24.4787H19.3209C19.4575 24.4787 19.5905 24.4256 19.6852 24.3283C19.7799 24.231 19.8309 24.1019 19.8218 23.9693C19.7253 22.0918 18.9967 20.2107 17.5941 18.2183C17.3026 17.8026 16.993 17.3958 16.6623 16.9978C16.5294 16.8387 16.5858 16.6353 16.6879 16.5362L16.9975 16.232C18.4065 14.8435 19.8573 13.402 20.9776 11.8455C22.1616 10.1962 22.8173 8.62647 22.9858 7.01251C23.004 6.8489 22.9275 6.67645 22.7927 6.57652L22.8018 6.56325L22.7882 6.5491ZM13.7716 7.99946C14.7251 7.99946 15.2789 7.94021 15.472 7.94021C15.6906 7.94021 15.9274 8.11708 15.9274 8.38239C15.9274 8.45314 15.9091 8.5062 15.8909 8.55926C15.7634 8.8847 15.1805 10.0662 14.1058 11.0797C13.9783 11.1929 13.8508 11.2141 13.7597 11.2141C13.6687 11.2141 13.5229 11.1929 13.4009 11.0797C12.3262 10.0662 11.7506 8.88647 11.6249 8.55572C11.6067 8.50266 11.5885 8.4496 11.5885 8.37001C11.5885 8.11354 11.8125 7.91898 12.0475 7.91898C12.2424 7.91898 12.7943 7.97204 13.7488 7.97204H13.7524L13.7707 7.98973L13.7716 7.99946ZM91.0977 6.47216H88.3727C88.1176 6.47216 87.91 6.66672 87.91 6.91434V9.24906C87.91 9.49668 88.1176 9.69832 88.3727 9.69832H91.105C91.36 9.69832 91.5667 9.50376 91.5667 9.25614V6.90285C91.5667 6.65523 91.36 6.45625 91.105 6.45625L91.0977 6.47747V6.47216ZM27.0779 0.902451C26.9568 0.743266 26.7682 0.65483 26.5679 0.65483C26.465 0.65483 26.3629 0.676054 26.2764 0.725579C22.5423 2.70655 18.2189 3.7554 13.767 3.75717C9.317 3.75717 4.99267 2.70655 1.26216 0.72381C1.17108 0.670748 1.07089 0.653061 0.97071 0.653061C0.770341 0.653061 0.579079 0.741497 0.460679 0.900682C0.28399 1.11293 0.278525 1.50205 0.579079 1.73198C2.44616 3.07621 4.50632 4.13745 6.69945 4.86263C8.97637 5.60549 11.3517 5.99461 13.767 5.99461C16.1842 5.99461 18.5613 5.60549 20.8346 4.86263C23.0295 4.13745 25.0897 3.07621 26.9604 1.73198C27.261 1.50205 27.2519 1.11293 27.0788 0.882995V0.902451H27.0779Z"
          fill="#D6DAE5"/>
</svg>
